X: 1
T: Lansdowne Lass, The
M: 4/4
L: 1/8
R: reel
K: Gmaj
|:B2 ge dBGA | B2 GB AGEG | DGGF GABd | egdB ABGA |
 B2 ge dBGA | B2 GB AGEG | DGGF GABd | egdB G2 GA :|
|:BG G2 gG G2 | g2 eg dBGA | B2 BA  Bcdg | eaag a2 ga |
 b2 ab agef | g2 eg dB G2 | G2 EG DEGe | dBAB G2 GA :|
